X:216
T:Miss Stewart's Jig of Bombay
R:Jig
C:William Marshall
B:Pinewoods Collection
Z:arr. Terry Traub 4-19-02
M:6/8
L:1/8
K:D
L: 1/8
A|: "D" d3 D2 F| "D"AFD D2 F| "Em"B2 E EFG | "D"FED "A7"CB,A,|!
| "D" d3 D2F | "D"AFD D2 F| "G" Egf "A7" edc | "D"d3 D2 :|!
A |"D" d2 d f/g/af| "D"dfd f/g/af | "Em" B2 e  efe| "A" c3 ABc|!
"D"d2 d f/g/af | "Em" gbg "D" faf | "Em"egf "A7" edc | "D" d3 D2 A|!
A |"D" d2 d f/g/af| "D"dfd f/g/af | "Em" B2 e  efe| "A" c3 ABc|!
"Bm" def "A"efg | "D"fed cBA | "G" B/c/dB "A7" c/d/ec| "D"d3 D2 |]
